X:59
T:Partie de Quadrille
C:Jos Buchard
M:4/4
L:1/8
K:D
A2 Bf afdf | Adfa fafa | egga gece | Aceg ageg |
A2Bf afdf | Adfa a3a | ^gaba =gece |1 d2d2 d4 :|2 d2d2 d3A/B/ |:
K:A
cece BeBe | Acec a3a | gaba gefg | aAgf efde |
cece BeBe | Acec a3a | gaba gefg |1 afec A2ed :|2 abag fgfe |]

